icons/loudly_crying_fill.svg

<svg width="48" height="48" viewBox="0 0 48 48" fill="none" xmlns="http://www.w3.org/2000/svg">
<path d="M31.7091 17.5165C29.9577 16.5486 28.4126 15.4866 27.6812 14.8061L26.3188 16.2703C27.2245 17.1129 28.9326 18.2671 30.7418 19.2669C32.5433 20.2625 34.5934 21.1882 36.1917 21.4834L36.5549 19.5166C35.2863 19.2823 33.4683 18.4886 31.7091 17.5165Z" fill="black"/>
<path d="M20.6922 14.8061C19.9607 15.4866 18.4156 16.5486 16.6642 17.5165C14.9051 18.4886 13.087 19.2823 11.8184 19.5166L12.1816 21.4834C13.78 21.1882 15.83 20.2625 17.6316 19.2669C19.4408 18.2671 21.1488 17.1129 22.0545 16.2703L20.6922 14.8061Z" fill="black"/>
<path d="M20 31C20 28.7909 21.7909 27 24 27C26.2091 27 28 28.7909 28 31V33C28 35.2091 26.2091 37 24 37C21.7909 37 20 35.2091 20 33V31Z" fill="black"/>
<path fill-rule="evenodd" clip-rule="evenodd" d="M35.4351 37.9017C39.4439 34.6003 42 29.5987 42 24C42 14.0589 33.9411 6 24 6C14.0589 6 6 14.0589 6 24C6 29.5987 8.55608 34.6003 12.5649 37.9017C9.74089 38.4426 8 39.1832 8 40C8 41.6568 15.1634 43 24 43C32.8366 43 40 41.6568 40 40C40 39.1832 38.2591 38.4426 35.4351 37.9017ZM35.3979 35.2288C38.2438 32.3404 40 28.3753 40 24C40 15.1634 32.8366 8 24 8C15.1634 8 8 15.1634 8 24C8 28.3303 9.72022 32.2587 12.5146 35.1394C12.3746 31.6163 13.2105 28.3229 14.4781 25.4898C14.1512 25.6652 13.8309 25.8624 13.5184 26.0816C13.3989 26.1655 13.2486 26.1929 13.1071 26.1566C12.9657 26.1203 12.8471 26.024 12.7827 25.8929C12.4022 25.1194 12.6614 24.1037 13.333 23.3167C14.026 22.5046 15.1973 21.8634 16.8318 21.7478C18.432 21.6346 19.7902 21.9438 20.7465 22.4314C21.2228 22.6744 21.6173 22.9709 21.8879 23.2995C22.1534 23.6221 22.3402 24.0299 22.2702 24.4638C22.247 24.6072 22.1626 24.7334 22.0389 24.8097C21.9153 24.8859 21.7646 24.9046 21.626 24.8609C20.5517 24.5216 19.4483 24.3727 18.3565 24.4205C18.324 24.5312 18.2783 24.6399 18.2185 24.7444C16.1539 28.356 14.8231 32.9409 15.8616 37.7785C18.246 39.1899 21.0284 40 24 40C26.9318 40 29.6795 39.2114 32.0425 37.8348C33.1035 32.9765 31.7704 28.37 29.6978 24.7444C29.6532 24.6664 29.6164 24.5861 29.5871 24.5043C28.518 24.4459 27.4361 24.5862 26.3833 24.9187C26.2448 24.9624 26.0941 24.9437 25.9704 24.8675C25.8467 24.7913 25.7623 24.665 25.7392 24.5216C25.6709 24.0987 25.8532 23.7033 26.1088 23.3928C26.3694 23.0762 26.7484 22.7916 27.2048 22.5589C28.1211 22.0916 29.4207 21.7961 30.9507 21.9044C32.515 22.015 33.6383 22.6289 34.3038 23.4088C34.9479 24.1637 35.2002 25.1423 34.8319 25.8912C34.7674 26.0223 34.6488 26.1186 34.5074 26.1549C34.3659 26.1911 34.2156 26.1637 34.0961 26.0799C33.9132 25.9516 33.7275 25.8313 33.5392 25.7188C34.7605 28.5239 35.5516 31.7667 35.3979 35.2288Z" fill="black"/>
</svg>

<svg
  xmlns="http://www.w3.org/2000/svg"
  width="24"
  height="24"
  viewBox="0 0 24 24"
  fill="none"
  stroke="currentColor"
  stroke-width="2"
  stroke-linecap="round"
  stroke-linejoin="round"
>
  <path d="M31.71 17.517c-1.752-.968-3.297-2.03-4.029-2.71L26.32 16.27c.906.843 2.614 1.997 4.423 2.997 1.801.995 3.851 1.921 5.45 2.216l.363-1.966c-1.269-.235-3.087-1.028-4.846-2" />
  <path d="M20.692 14.806c-.731.68-2.276 1.743-4.028 2.71-1.759.973-3.577 1.766-4.846 2l.364 1.967c1.598-.295 3.648-1.22 5.45-2.216 1.809-1 3.517-2.154 4.422-2.997z" />
  <path d="M20 31a4 4 0 0 1 8 0v2a4 4 0 0 1-8 0z" />
  <path
    fill-rule="evenodd"
    d="M35.435 37.902A17.96 17.96 0 0 0 42 24c0-9.941-8.059-18-18-18S6 14.059 6 24c0 5.599 2.556 10.6 6.565 13.902C9.74 38.442 8 39.183 8 40c0 1.657 7.163 3 16 3s16-1.343 16-3c0-.817-1.74-1.557-4.565-2.098m-.037-2.673A15.95 15.95 0 0 0 40 24c0-8.837-7.163-16-16-16S8 15.163 8 24c0 4.33 1.72 8.259 4.515 11.14-.14-3.524.695-6.817 1.963-9.65a10 10 0 0 0-.96.592.5.5 0 0 1-.735-.19c-.38-.773-.122-1.788.55-2.575.693-.812 1.864-1.454 3.499-1.57 1.6-.112 2.958.197 3.915.684.476.243.87.54 1.14.868.266.323.453.73.383 1.165a.5.5 0 0 1-.644.397 9.5 9.5 0 0 0-3.27-.44q-.048.166-.138.323c-2.064 3.612-3.395 8.197-2.356 13.035A15.9 15.9 0 0 0 24 40c2.932 0 5.68-.789 8.042-2.165 1.061-4.858-.272-9.465-2.344-13.09a1.5 1.5 0 0 1-.11-.24 9 9 0 0 0-3.205.414.5.5 0 0 1-.644-.397c-.068-.423.114-.819.37-1.13.26-.316.64-.6 1.096-.833.916-.467 2.216-.763 3.746-.655 1.564.111 2.687.725 3.353 1.505.644.755.896 1.733.528 2.482a.5.5 0 0 1-.736.189 9 9 0 0 0-.557-.361c1.221 2.805 2.013 6.048 1.859 9.51"
    clip-rule="evenodd"
  />
</svg>
